packages/icons/src/aws-rds.svg

<svg preserveAspectRatio="xMidYMid" viewBox="0 0 256 289" xmlns="http://www.w3.org/2000/svg"><path d="m0 224.742 29.972 35.125 2.695-3.201v-224.666l-2.695-3.395-29.972 35.112z" fill="#1a476f"/><path d="m29.976 259.867 57.27 28.633 2.382-3.833.039-281.667-2.381-3-57.31 28.541z" fill="#1f5b98"/><path d="m256 63.717-29.98-35.112-3.353 1.062.666 227.333 2.687 2.867 29.98-35.121z" fill="#2d72b8"/><path d="m168.75 288.5 57.27-28.633v-231.326l-57.31-28.541-2.71 3.667.039 280.666z" fill="#5294cf"/><path d="m87.286 0h81.424v288.504h-81.424z" fill="#2d72b8"/></svg>

<svg viewBox="0 0 256 289" xmlns="http://www.w3.org/2000/svg" preserveAspectRatio="xMidYMid"><path d="M0 224.742l29.972 35.125 2.695-3.201V32l-2.695-3.395L0 63.717v161.025" fill="#1A476F"/><path d="M29.976 259.867l57.27 28.633 2.382-3.833L89.667 3l-2.381-3-57.31 28.541v231.326" fill="#1F5B98"/><path d="M256 63.717l-29.98-35.112-3.353 1.062.666 227.333 2.687 2.867L256 224.746V63.717" fill="#2D72B8"/><path d="M168.75 288.5l57.27-28.633V28.541L168.71 0 166 3.667l.039 280.666 2.711 4.167" fill="#5294CF"/><path d="M87.286 0h81.424v288.504H87.286V0z" fill="#2D72B8"/></svg>
